!! 00000] TT[WS
!!!OTL: Tan qinglang
!!!ARE: Asia, China, Shanxi Xixian
!! Ethnic Group: Han
!! WII, 67 (2)
!!!SCT: J0496
!!!YEM: Copyright 1995, estate of Helmut Schaffrath.
**kern
*ICvox
*Ivox
*M4/4
*k[b-e-]
*B-:
{4ccc
8ccc
8ddd
4.ff
8gg
=1
4ccc
8ccc
8ddd
2ccc
=2
4.eee-
8fff
4ccc
8ccc
8gg
=3
8ff
8gg
8ff
8ee-
4ff
4r}
=4
{8ccc
8ccc
8gg
8bb-
8bb-
8eee-
8ccc
8bb-
=5
4gg
8bb-
8gg
8ff
8ee-
4cc
=6
8ff
8ff
8dd
8cc
8b-
8cc
8ff
8dd
=7
8cc
8cc
8cc
8b-
4cc
4r}
==
!!!AGN: Xiaodiao. Qingge, Sichun
!!!ONB: ESAC (Essen Associative Code) Database: CHINA
!!!AMT: simple quadruple
!!!AIN: vox
!!!EED: Helmut Schaffrath
!!!EEV: 1.0
*-
